X:1
T:Sally Munro
M:4/4
L:1/8
K:G
 E| G2 FG E2 DB,| A,2 B,B, D3 E| G2 EG E2E-F|G-F GA B2 z| A| B2 dd B2 AG|\
 A3/2 A/2 BB E3 D| EE GA B2 B B/2A/2| G F2 E E3||
